X:250
T:Reilly's Own Reel
R:Reel
M:2/4
L:1/16
K:G
D2|DGGG G2GG|G2ed ^cdBG|DFAA A2AA|A2ed ^cdBG|
DGGG G2GG|G2ed ^cdBG|FADF A2FA|G2B2 G2:|
|:d2|e2f2 g2fe|ed^cd B2AG|FADF A2FA|G2ed ^cdBG|
e2f2 g2fe|ed^cd B2AG|FADF A2FA|G2B2 G2:|
